X: 39647
T: Templehouse, The
R: jig
M: 6/8
K: Eminor
|:EFE G2E|B2E G2E|DED F2D|A2D F2D|
EFE G2E|B2E G2E|BcB cBA|BGE E3:|
gfg ege|gfg ege|faf dfd|faf def|
gfg ege|gfg ege|gbg faf|bge e2f|
gfg ege|gfg ege|faf dfd|faf def|
gfe agf|bag fed|BcB cBA|BGE E3||

